assets/1001tracklists/mono.svg

<svg viewBox="0 0 24 24" xmlns="http://www.w3.org/2000/svg"><path d="m8.0957 1.334v1.3457h-1.3496v1.3457h-1.3477v1.3456h-1.3496v1.3457h-1.3496v6.6816h-1.3496v1.3477h-1.3496v2.4512h1.3496v1.3457h1.3496v1.3457h2.457v-7.836h-1.3495v-4.2303h1.3497v-1.3457h1.3496v-1.3457h1.3496v-1.3457h8.289v1.3457h1.3496v1.3457h1.3496v1.3457h1.3497v4.2304h-1.3497v7.836h2.457v-1.3457h1.3497v-1.3457h1.3495v-2.4513h-1.3496v-1.3477h-1.3496v-6.6815h-1.3496v-1.3457h-1.3496v-1.3457h-1.3477v-1.3457h-1.3496v-1.3457zm1.3711 8v1.3515h-1.3555v3.8165h2.4688v-4.0567h2.9512v4.3477h-1.3555v1.3515h-1.3535v2.4649h2.4668v-2.7051h2.7109v-5.2188h-1.3555v-1.3515zm1.3555 10.8691v2.463h2.4668v-2.463z"/></svg>

<svg xmlns="http://www.w3.org/2000/svg" viewBox="0 0 24 24"><path d="M8.096 1.334V2.68h-1.35v1.345H5.398v1.346h-1.35v1.346H2.7v6.681H1.35v1.348H0v2.451h1.35v1.346H2.7v1.346h2.456v-7.836h-1.35v-4.23h1.35V6.476h1.35V5.13h1.35V3.785h8.289v1.346h1.35v1.346h1.349v1.345h1.35v4.23h-1.35v7.837H21.3v-1.346h1.35v-1.346H24v-2.451h-1.35v-1.348H21.3V6.717h-1.349V5.37h-1.35V4.025h-1.347V2.68h-1.35V1.334zm1.37 8v1.352H8.112v3.816h2.47v-4.057h2.95v4.348h-1.355v1.352h-1.354v2.464h2.467v-2.705H16v-5.218h-1.355V9.334zm1.356 10.87v2.462h2.467v-2.463z"/></svg>
